X:068
T:Maria’s Frolick TS.068
M:6/8
L:1/8
Q:3/8=115
S:Thomas Sands’ MS,1810,Lincolnshire
R:jig
O:England;Lincolnshire
Z:vmp.Ruairidh Greig, 2011
K:D
(AG)|FGA AFA|BGB AFA|E2e efd|”tr”c3A3|
FGA AFA|BGB AFA|D2d dec|d3″dotted in ms”D2:|
|:g|fga agf|efg gfe|fga Bcd|”tr”c3A2(B/c/)|
dcB AGF|GAB AFA|D2d dec|d3D2:|]

